SuperDuu/agv_project/ros2_hybrid/ros2_ws/moveit_flat_chair_demo_frames.csv
frame,q1,q2,q3,q4,q5,q6,x,y,z,tilt
0,0.0000,0.0000,20.0000,-35.0000,0.0000,0.0000,108.3816,-32.0000,174.4788,57.3854
1,2.8840,4.6245,24.9574,-39.9576,6.6198,2.7794,102.3849,-29.4367,161.1930,58.0957
2,5.7679,9.2491,29.9148,-44.9153,13.2396,5.5587,94.0475,-28.1886,150.0794,59.5289
3,8.6519,13.8736,34.8722,-49.8729,19.8594,8.3381,84.2606,-28.3746,141.6088,61.4495
4,11.5359,18.4982,39.8296,-54.8305,26.4792,11.1175,73.9711,-29.9220,135.9958,63.7603
5,14.4198,23.1227,44.7870,-59.7881,33.0990,13.8968,64.0726,-32.5795,133.1961,66.4888
6,17.3038,27.7472,49.7444,-64.7458,39.7189,16.6762,55.3099,-35.9559,132.9327,69.7406
7,20.1878,32.3718,54.7018,-69.7034,46.3387,19.4555,48.2067,-39.5775,134.7437,73.6371
8,23.0717,36.9963,59.6592,-74.6610,52.9585,22.2349,43.0273,-42.9565,138.0480,78.2562
9,25.9557,41.6208,64.6166,-79.6186,59.5783,25.0143,39.7726,-45.6573,142.2183,83.5908
10,28.8397,46.2454,69.5740,-84.5763,66.1981,27.7936,38.2109,-47.3524,146.6528,89.5289
11,31.7236,50.8699,74.5314,-89.5339,72.8179,30.5730,37.9348,-47.8594,150.8377,84.1486
12,34.6076,55.4945,79.4888,-94.4915,79.4377,33.3524,38.4348,-47.1533,154.3931,77.7628
13,35.0146,55.6654,71.6871,-86.6825,79.9419,32.9083,38.4293,-47.0844,154.9628,85.4148
14,35.0291,55.5963,63.3743,-78.3650,79.8838,32.8707,37.4960,-46.9299,154.6142,85.5088
15,35.0437,55.5273,55.0614,-70.0475,79.8257,32.8332,36.0732,-46.2523,153.4552,76.5067
16,35.0582,55.4583,46.7485,-61.7300,79.7676,32.7956,34.4469,-44.8865,151.4634,68.0329
17,35.0728,55.3892,38.4357,-53.4125,79.7095,32.7581,32.9077,-42.6813,148.7259,60.6592
18,35.0873,55.3202,30.1228,-45.0950,79.6514,32.7205,31.7227,-39.5176,145.4336,55.1126
19,34.9327,55.6804,38.2758,-53.2751,79.9758,32.8909,32.6826,-42.8685,148.8856,60.5975
20,34.8654,55.6263,46.5516,-61.5501,79.9516,32.8359,34.2907,-45.0395,151.5490,67.9404
21,34.7981,55.5723,54.8274,-69.8252,79.9273,32.7810,35.9668,-46.3947,153.4763,76.3518
22,34.7309,55.5182,63.1032,-78.1003,79.9031,32.7260,37.4307,-47.0789,154.5861,85.2821
23,34.6636,55.4642,71.3790,-86.3754,79.8789,32.6711,38.4065,-47.2491,154.9016,85.7063
24,34.5963,55.4101,79.6548,-94.6504,79.8547,32.6162,38.6486,-47.0576,154.5458,76.9968
25,35.0243,48.7882,80.0072,-94.9800,70.0096,32.9744,38.6578,-44.9202,149.3553,82.2347
26,35.0486,41.8420,80.0145,-94.9601,60.0192,33.0029,39.2035,-41.3931,144.1852,86.9815
27,35.0729,34.8957,80.0217,-94.9401,50.0288,33.0315,40.3119,-36.3489,139.5211,89.1833
28,35.0972,27.9495,80.0289,-94.9201,40.0384,33.0600,41.9568,-29.9330,135.7627,86.2728
29,35.1215,21.0033,80.0362,-94.9002,30.0480,33.0886,44.0326,-22.3767,133.2719,84.2188
30,35.1458,14.0571,80.0434,-94.8802,20.0575,33.1171,46.3640,-13.9863,132.3402,82.8709
31,35.1701,7.1108,80.0506,-94.8602,10.0671,33.1457,48.7231,-5.1252,133.1617,82.0081
32,35.1944,0.1646,80.0579,-94.8403,0.0767,33.1743,50.8513,3.8071,135.8148,81.3615
33,35.2187,-6.7816,80.0651,-94.8203,-9.9137,33.2028,52.4849,12.3995,140.2522,80.6439
34,35.2430,-13.7278,80.0723,-94.8003,-19.9041,33.2314,53.3813,20.2550,146.3027,79.5808
35,35.2673,-20.6741,80.0796,-94.7804,-29.8945,33.2599,53.3437,27.0149,153.6823,77.9373
36,35.2916,-27.6203,80.0868,-94.7604,-39.8849,33.2885,52.2422,32.3802,162.0152,75.5401
37,35.3159,-34.5665,80.0940,-94.7405,-49.8753,33.3171,50.0291,36.1294,170.8626,72.2893
38,35.3402,-41.5127,80.1013,-94.7205,-59.8657,33.3456,46.7467,38.1295,179.7561,68.1621
39,35.3645,-48.4590,80.1085,-94.7005,-69.8561,33.3742,42.5276,38.3415,188.2347,63.2098
40,35.3888,-55.4052,80.1157,-94.6806,-79.8465,33.4027,37.5858,36.8187,195.8798,57.5536
41,32.5050,-55.7212,79.9897,-94.9871,-80.0042,32.9402,40.8869,34.7695,196.0222,56.6634
42,30.0099,-55.7080,79.9794,-94.9743,-80.0084,32.9345,43.7576,32.9292,196.0262,56.6614
43,27.5149,-55.6948,79.9691,-94.9614,-80.0125,32.9289,46.5456,30.9656,196.0303,56.6595
44,25.0199,-55.6816,79.9589,-94.9486,-80.0167,32.9232,49.2455,28.8823,196.0344,56.6575
45,22.5249,-55.6684,79.9486,-94.9357,-80.0209,32.9176,51.8524,26.6833,196.0384,56.6556
46,20.0298,-55.6552,79.9383,-94.9228,-80.0251,32.9120,54.3611,24.3727,196.0425,56.6537
47,17.5348,-55.6421,79.9280,-94.9100,-80.0293,32.9063,56.7670,21.9550,196.0465,56.6517
48,15.0398,-55.6289,79.9177,-94.8971,-80.0334,32.9007,59.0655,19.4347,196.0506,56.6498
49,12.5448,-55.6157,79.9074,-94.8843,-80.0376,32.8950,61.2521,16.8166,196.0546,56.6479
50,10.0497,-55.6025,79.8971,-94.8714,-80.0418,32.8894,63.3228,14.1056,196.0587,56.6459
51,7.5547,-55.5893,79.8869,-94.8585,-80.0460,32.8838,65.2736,11.3069,196.0627,56.6440
52,5.0597,-55.5761,79.8766,-94.8457,-80.0501,32.8781,67.1007,8.4257,196.0668,56.6421
53,2.5647,-55.5629,79.8663,-94.8328,-80.0543,32.8725,68.8008,5.4676,196.0708,56.6401
54,0.0696,-55.5497,79.8560,-94.8199,-80.0585,32.8668,70.3705,2.4381,196.0749,56.6382
55,-2.4254,-55.5365,79.8457,-94.8071,-80.0627,32.8612,71.8069,-0.6570,196.0789,56.6363
56,-4.9204,-55.5233,79.8354,-94.7942,-80.0669,32.8556,73.1072,-3.8119,196.0830,56.6343
57,-7.4154,-55.5101,79.8251,-94.7814,-80.0710,32.8499,74.2690,-7.0206,196.0870,56.6324
58,-9.9105,-55.4969,79.8149,-94.7685,-80.0752,32.8443,75.2900,-10.2770,196.0911,56.6305
59,-12.4055,-55.4838,79.8046,-94.7556,-80.0794,32.8386,76.1684,-13.5750,196.0951,56.6286
60,-14.9005,-55.4706,79.7943,-94.7428,-80.0836,32.8330,76.9023,-16.9082,196.0992,56.6266
61,-17.3955,-55.4574,79.7840,-94.7299,-80.0878,32.8274,77.4904,-20.2704,196.1032,56.6247
62,-19.8906,-55.4442,79.7737,-94.7171,-80.0919,32.8217,77.9316,-23.6552,196.1073,56.6228
63,-22.3856,-55.4310,79.7634,-94.7042,-80.0961,32.8161,78.2249,-27.0562,196.1113,56.6209
64,-24.8806,-55.4178,79.7531,-94.6913,-80.1003,32.8104,78.3700,-30.4669,196.1153,56.6189
65,-27.3756,-55.4046,79.7428,-94.6785,-80.1045,32.8048,78.3664,-33.8808,196.1194,56.6170
66,-29.8707,-55.3914,79.7326,-94.6656,-80.1087,32.7992,78.2141,-37.2915,196.1234,56.6151
67,-32.3657,-55.3782,79.7223,-94.6528,-80.1128,32.7935,77.9135,-40.6926,196.1275,56.6132
68,-34.8607,-55.3650,79.7120,-94.6399,-80.1170,32.7879,77.4650,-44.0774,196.1315,56.6113
69,-37.3557,-55.3518,79.7017,-94.6270,-80.1212,32.7822,76.8695,-47.4398,196.1356,56.6093
70,-39.8508,-55.3386,79.6914,-94.6142,-80.1254,32.7766,76.1282,-50.7731,196.1396,56.6074
71,-42.3458,-55.3255,79.6811,-94.6013,-80.1296,32.7710,75.2423,-54.0712,196.1436,56.6055
72,-44.8408,-55.3123,79.6708,-94.5884,-80.1337,32.7653,74.2137,-57.3278,196.1477,56.6036
73,-45.1138,-55.5952,79.9496,-94.9616,-80.1331,32.9351,73.9574,-57.5723,196.0016,56.7573
74,-45.2275,-55.4560,79.8992,-94.9233,-80.2663,32.9244,73.8839,-57.6739,195.9853,56.8491
75,-45.3413,-55.3169,79.8488,-94.8849,-80.3994,32.9138,73.8102,-57.7755,195.9692,56.9408
76,-44.9624,-55.6120,80.0551,-95.0784,-79.8149,32.9635,74.0798,-57.4882,195.8230,56.8401
77,-44.9248,-55.4897,80.1102,-95.1567,-79.6298,32.9812,74.1281,-57.5054,195.6275,57.0145
78,-44.8872,-55.3673,80.1652,-95.2351,-79.4447,32.9989,74.1755,-57.5223,195.4317,57.1886
79,-43.1407,-55.7298,80.0227,-94.9909,-79.9817,32.9655,74.8216,-55.0606,196.0049,56.7104
80,-41.2814,-55.7253,80.0454,-94.9818,-79.9634,32.9852,75.5342,-52.6261,195.9917,56.7554
81,-39.4221,-55.7207,80.0681,-94.9727,-79.9451,33.0050,76.1676,-50.1697,195.9785,56.8005
82,-37.5628,-55.7161,80.0907,-94.9636,-79.9268,33.0247,76.7210,-47.6939,195.9653,56.8456
83,-35.7035,-55.7116,80.1134,-94.9545,-79.9085,33.0444,77.1941,-45.2012,195.9521,56.8906
84,-33.8442,-55.7070,80.1361,-94.9454,-79.8901,33.0641,77.5861,-42.6944,195.9389,56.9357
85,-31.9850,-55.7025,80.1588,-94.9363,-79.8718,33.0838,77.8968,-40.1761,195.9256,56.9808
86,-30.1257,-55.6979,80.1815,-94.9272,-79.8535,33.1035,78.1257,-37.6488,195.9124,57.0259
87,-28.2664,-55.6933,80.2042,-94.9181,-79.8352,33.1233,78.2726,-35.1153,195.8991,57.0710
88,-26.4071,-55.6888,80.2268,-94.9090,-79.8169,33.1430,78.3374,-32.5783,195.8859,57.1161
89,-24.5478,-55.6842,80.2495,-94.8999,-79.7986,33.1627,78.3200,-30.0402,195.8726,57.1612
90,-22.6885,-55.6796,80.2722,-94.8908,-79.7803,33.1824,78.2203,-27.5040,195.8593,57.2062
91,-20.8292,-55.6751,80.2949,-94.8817,-79.7620,33.2021,78.0385,-24.9721,195.8460,57.2513
92,-18.9699,-55.6705,80.3176,-94.8726,-79.7437,33.2218,77.7748,-22.4473,195.8327,57.2964
93,-17.1106,-55.6659,80.3403,-94.8635,-79.7254,33.2416,77.4294,-19.9322,195.8194,57.3415
94,-15.2513,-55.6614,80.3629,-94.8544,-79.7070,33.2613,77.0026,-17.4294,195.8061,57.3866
95,-13.3920,-55.6568,80.3856,-94.8453,-79.6887,33.2810,76.4950,-14.9417,195.7928,57.4318
96,-11.5327,-55.6523,80.4083,-94.8362,-79.6704,33.3007,75.9070,-12.4715,195.7795,57.4769
97,-9.6735,-55.6477,80.4310,-94.8271,-79.6521,33.3204,75.2393,-10.0215,195.7661,57.5220
98,-7.8142,-55.6431,80.4537,-94.8180,-79.6338,33.3401,74.4925,-7.5943,195.7528,57.5671
99,-5.9549,-55.6386,80.4764,-94.8089,-79.6155,33.3599,73.6674,-5.1925,195.7395,57.6122
100,-4.0956,-55.6340,80.4990,-94.7998,-79.5972,33.3796,72.7649,-2.8184,195.7261,57.6573
101,-2.2363,-55.6294,80.5217,-94.7907,-79.5789,33.3993,71.7859,-0.4747,195.7127,57.7025
102,-0.3770,-55.6249,80.5444,-94.7816,-79.5606,33.4190,70.7314,1.8362,195.6993,57.7476
103,0.0120,-51.0650,80.0064,-94.9540,-73.3319,36.4036,73.8238,1.4196,191.0674,63.9310
104,0.0240,-46.3955,80.0128,-94.9079,-66.6637,39.8613,76.6224,0.0511,185.6757,70.7830
105,0.0359,-41.7261,80.0192,-94.8619,-59.9956,43.3191,78.6739,-1.7502,179.9572,77.0786
106,0.0479,-37.0567,80.0256,-94.8159,-53.3275,46.7769,79.9196,-3.9601,174.0397,82.6625
107,0.0599,-32.3872,80.0320,-94.7698,-46.6594,50.2346,80.3254,-6.5492,168.0606,87.3700
108,0.0719,-27.7178,80.0384,-94.7238,-39.9912,53.6924,79.8823,-9.4827,162.1614,88.9625
109,0.0838,-23.0483,80.0448,-94.6778,-33.3231,57.1502,78.6074,-12.7214,156.4838,86.4808
110,0.0958,-18.3789,80.0511,-94.6317,-26.6550,60.6079,76.5433,-16.2217,151.1637,85.2905
111,0.1078,-13.7095,80.0575,-94.5857,-19.9868,64.0657,73.7566,-19.9364,146.3272,85.4364
112,0.1198,-9.0400,80.0639,-94.5397,-13.3187,67.5235,70.3354,-23.8154,142.0859,86.8912
113,0.1317,-4.3706,80.0703,-94.4936,-6.6506,70.9813,66.3867,-27.8063,138.5331,89.5599
114,0.1437,0.2988,80.0767,-94.4476,0.0175,74.4390,62.0317,-31.8551,135.7403,86.7039
115,0.0280,0.0350,75.0052,-89.9898,0.0018,68.7288,67.4885,-31.9682,137.0214,84.6273
116,0.0559,0.0700,70.0104,-84.9796,0.0036,62.4576,72.4418,-31.9315,138.5652,82.4984
117,0.0839,0.1050,65.0157,-79.9695,0.0054,56.1864,77.2419,-31.8902,140.5314,80.2278
118,0.1118,0.1400,60.0209,-74.9593,0.0071,49.9152,81.8528,-31.8445,142.9050,77.8360
119,0.1398,0.1750,55.0261,-69.9491,0.0089,43.6440,86.2400,-31.7948,145.6683,75.3453
120,0.1677,0.2099,50.0313,-64.9389,0.0107,37.3728,90.3707,-31.7414,148.8003,72.7791
121,0.1957,0.2449,45.0365,-59.9287,0.0125,31.1016,94.2140,-31.6849,152.2775,70.1630
122,0.2236,0.2799,40.0418,-54.9185,0.0143,24.8304,97.7412,-31.6257,156.0738,67.5241
123,0.2516,0.3149,35.0470,-49.9084,0.0161,18.5592,100.9259,-31.5644,160.1606,64.8921
124,0.2795,0.3499,30.0522,-44.8982,0.0179,12.2880,103.7442,-31.5016,164.5073,62.2995
125,0.3075,0.3849,25.0574,-39.8880,0.0197,6.0168,106.1752,-31.4379,169.0812,59.7819
126,0.3354,0.4199,20.0626,-34.8778,0.0214,-0.2544,108.2006,-31.3741,173.8481,57.3787
127,0.0174,-0.0309,24.9526,-39.9757,-0.0066,6.2405,106.4144,-31.9651,169.7309,59.7590
128,0.0348,-0.0619,29.9052,-44.9514,-0.0132,12.4811,104.0462,-31.9312,165.1688,62.2481
129,0.0521,-0.0928,34.8578,-49.9271,-0.0199,18.7216,101.2943,-31.8985,160.8261,64.8138
130,0.0695,-0.1237,39.8104,-54.9028,-0.0265,24.9622,98.1787,-31.8676,156.7351,67.4209
131,0.0869,-0.1547,44.7630,-59.8785,-0.0331,31.2027,94.7224,-31.8389,152.9259,70.0373
132,0.1043,-0.1856,49.7156,-64.8542,-0.0397,37.4432,90.9506,-31.8125,149.4268,72.6335
133,0.1216,-0.2166,54.6682,-69.8299,-0.0464,43.6838,86.8910,-31.7889,146.2638,75.1824
134,0.1390,-0.2475,59.6208,-74.8056,-0.0530,49.9243,82.5734,-31.7684,143.4605,77.6587
135,0.1564,-0.2784,64.5733,-79.7813,-0.0596,56.1649,78.0295,-31.7512,141.0377,80.0387
136,0.1738,-0.3094,69.5259,-84.7571,-0.0662,62.4054,73.2929,-31.7374,139.0136,82.3002
137,0.1912,-0.3403,74.4785,-89.7328,-0.0729,68.6459,68.3984,-31.7273,137.4034,84.4223
138,0.2085,-0.3712,79.4311,-94.7085,-0.0795,74.8865,63.3820,-31.7209,136.2193,86.3857
139,-0.0279,-4.6339,80.0300,-95.0018,-6.6352,71.4660,66.6645,-28.0037,138.6922,89.6866
140,-0.0558,-9.2679,80.0599,-95.0036,-13.2704,67.9319,70.5173,-24.0652,142.2132,87.0268
141,-0.0837,-13.9018,80.0899,-95.0054,-19.9056,64.3979,73.8601,-20.2368,146.4059,85.5701
142,-0.1116,-18.5357,80.1198,-95.0073,-26.5408,60.8638,76.5890,-16.5696,151.1814,85.4112
143,-0.1395,-23.1696,80.1498,-95.0091,-33.1760,57.3298,78.6178,-13.1121,156.4326,86.5784
144,-0.1674,-27.8036,80.1797,-95.0109,-39.8112,53.7958,79.8805,-9.9099,162.0387,89.0297
145,-0.1953,-32.4375,80.2097,-95.0127,-46.4464,50.2617,80.3340,-7.0052,167.8686,87.3374
146,-0.2232,-37.0714,80.2396,-95.0145,-53.0816,46.7277,79.9597,-4.4362,173.7855,82.6654
147,-0.2511,-41.7053,80.2696,-95.0163,-59.7167,43.1936,78.7634,-2.2366,179.6522,77.1149
148,-0.2790,-46.3393,80.2995,-95.0181,-66.3519,39.6596,76.7758,-0.4354,185.3348,70.8481
149,-0.3069,-50.9732,80.3295,-95.0200,-72.9871,36.1255,74.0507,0.9438,190.7082,64.0183
150,-0.3348,-55.6071,80.3594,-95.0218,-79.6223,32.5915,70.6634,1.8830,195.6598,56.7659
151,-1.8632,-55.7108,79.9853,-94.9872,-79.9811,32.9342,71.4552,0.0294,196.0117,56.6613
152,-3.7265,-55.6872,79.9706,-94.9744,-79.9621,32.9227,72.4767,-2.3133,196.0053,56.6573
153,-5.5897,-55.6636,79.9559,-94.9617,-79.9432,32.9111,73.4214,-4.6886,195.9989,56.6533
154,-7.4530,-55.6399,79.9412,-94.9489,-79.9242,32.8996,74.2882,-7.0939,195.9925,56.6493
155,-9.3162,-55.6163,79.9264,-94.9361,-79.9053,32.8880,75.0763,-9.5267,195.9861,56.6453
156,-11.1794,-55.5927,79.9117,-94.9233,-79.8863,32.8765,75.7847,-11.9845,195.9796,56.6413
157,-13.0427,-55.5691,79.8970,-94.9105,-79.8674,32.8649,76.4126,-14.4645,195.9732,56.6373
158,-14.9059,-55.5455,79.8823,-94.8978,-79.8485,32.8534,76.9594,-16.9642,195.9668,56.6333
159,-16.7691,-55.5219,79.8676,-94.8850,-79.8295,32.8418,77.4244,-19.4809,195.9603,56.6293
160,-18.6324,-55.4982,79.8529,-94.8722,-79.8106,32.8302,77.8071,-22.0120,195.9539,56.6254
161,-20.4956,-55.4746,79.8382,-94.8594,-79.7916,32.8187,78.1071,-24.5547,195.9474,56.6214
162,-22.3589,-55.4510,79.8235,-94.8466,-79.7727,32.8071,78.3240,-27.1063,195.9409,56.6174
163,-24.2221,-55.4274,79.8087,-94.8339,-79.7537,32.7956,78.4575,-29.6642,195.9344,56.6135
164,-26.0853,-55.4038,79.7940,-94.8211,-79.7348,32.7840,78.5075,-32.2255,195.9280,56.6095
165,-27.9486,-55.3802,79.7793,-94.8083,-79.7158,32.7725,78.4739,-34.7877,195.9215,56.6056
166,-29.8118,-55.3566,79.7646,-94.7955,-79.6969,32.7609,78.3566,-37.3478,195.9150,56.6017
167,-31.6750,-55.3329,79.7499,-94.7827,-79.6780,32.7494,78.1559,-39.9033,195.9085,56.5977
168,-33.5383,-55.3093,79.7352,-94.7699,-79.6590,32.7378,77.8718,-42.4514,195.9020,56.5938
169,-35.4015,-55.2857,79.7205,-94.7572,-79.6401,32.7262,77.5046,-44.9894,195.8954,56.5899
170,-37.2648,-55.2621,79.7058,-94.7444,-79.6211,32.7147,77.0547,-47.5145,195.8889,56.5860
171,-39.1280,-55.2385,79.6911,-94.7316,-79.6022,32.7031,76.5225,-50.0241,195.8824,56.5821
172,-40.9912,-55.2149,79.6763,-94.7188,-79.5832,32.6916,75.9086,-52.5155,195.8758,56.5782
173,-42.8545,-55.1912,79.6616,-94.7060,-79.5643,32.6800,75.2136,-54.9860,195.8693,56.5743
174,-44.7177,-55.1676,79.6469,-94.6933,-79.5454,32.6685,74.4382,-57.4330,195.8627,56.5704
175,-45.0228,-55.7883,79.9505,-95.1518,-80.0096,32.8957,73.9942,-57.4837,195.9969,56.5103
176,-45.0455,-55.8422,79.9009,-95.3036,-80.0193,32.8456,73.9577,-57.4971,195.9756,56.3558
177,-45.0683,-55.8961,79.8514,-95.4555,-80.0289,32.7956,73.9212,-57.5107,195.9542,56.2017
178,-45.0073,-55.7687,79.9293,-94.9607,-79.8729,33.0063,74.0888,-57.5577,196.0658,56.6084
179,-45.0146,-55.8030,79.8586,-94.9214,-79.7459,33.0669,74.1467,-57.6449,196.1139,56.5516
180,-45.0219,-55.8374,79.7879,-94.8822,-79.6188,33.1274,74.2044,-57.7321,196.1623,56.4949
181,-43.1354,-55.7546,79.9876,-95.0163,-79.9777,32.9588,74.8262,-55.0584,196.0234,56.6429
182,-41.2708,-55.7749,79.9751,-95.0325,-79.9554,32.9718,75.5432,-52.6215,196.0286,56.6205
183,-39.4063,-55.7951,79.9627,-95.0488,-79.9331,32.9848,76.1809,-50.1623,196.0338,56.5980
184,-37.5417,-55.8153,79.9502,-95.0651,-79.9109,32.9978,76.7385,-47.6834,196.0391,56.5756
185,-35.6771,-55.8355,79.9378,-95.0814,-79.8886,33.0108,77.2155,-45.1875,196.0444,56.5531
186,-33.8125,-55.8558,79.9253,-95.0976,-79.8663,33.0238,77.6113,-42.6772,196.0497,56.5307
187,-31.9480,-55.8760,79.9129,-95.1139,-79.8440,33.0368,77.9255,-40.1550,196.0550,56.5082
188,-30.0834,-55.8962,79.9004,-95.1302,-79.8217,33.0498,78.1578,-37.6237,196.0603,56.4857
189,-28.2188,-55.9165,79.8880,-95.1465,-79.7994,33.0628,78.3079,-35.0860,196.0657,56.4632
190,-26.3542,-55.9367,79.8755,-95.1627,-79.7771,33.0758,78.3755,-32.5444,196.0710,56.4407
191,-24.4897,-55.9569,79.8631,-95.1790,-79.7548,33.0888,78.3607,-30.0017,196.0764,56.4182
192,-22.6251,-55.9772,79.8506,-95.1953,-79.7326,33.1018,78.2635,-27.4605,196.0818,56.3957
193,-20.7605,-55.9974,79.8382,-95.2116,-79.7103,33.1148,78.0838,-24.9236,196.0872,56.3732
194,-18.8959,-56.0176,79.8258,-95.2278,-79.6880,33.1278,77.8219,-22.3935,196.0926,56.3507
195,-17.0314,-56.0378,79.8133,-95.2441,-79.6657,33.1408,77.4781,-19.8730,196.0980,56.3282
196,-15.1668,-56.0581,79.8009,-95.2604,-79.6434,33.1538,77.0526,-17.3647,196.1035,56.3056
197,-13.3022,-56.0783,79.7884,-95.2767,-79.6211,33.1668,76.5459,-14.8713,196.1089,56.2831
198,-11.4376,-56.0985,79.7760,-95.2929,-79.5988,33.1798,75.9586,-12.3953,196.1144,56.2605
199,-9.5731,-56.1188,79.7635,-95.3092,-79.5765,33.1928,75.2912,-9.9394,196.1199,56.2380
200,-7.7085,-56.1390,79.7511,-95.3255,-79.5543,33.2058,74.5444,-7.5062,196.1254,56.2154
201,-5.8439,-56.1592,79.7386,-95.3418,-79.5320,33.2188,73.7190,-5.0982,196.1309,56.1928
202,-3.9793,-56.1794,79.7262,-95.3580,-79.5097,33.2318,72.8158,-2.7180,196.1365,56.1702
203,-2.1148,-56.1997,79.7137,-95.3743,-79.4874,33.2448,71.8358,-0.3680,196.1420,56.1476
204,-0.2502,-56.2199,79.7013,-95.3906,-79.4651,33.2578,70.7800,1.9491,196.1476,56.1250
205,2.1755,-55.7536,79.9676,-94.9800,-79.9907,32.9250,69.0223,4.9839,196.0550,56.5928
206,4.3509,-55.7728,79.9352,-94.9601,-79.9815,32.9042,67.5870,7.5788,196.0919,56.5203
207,6.5264,-55.7920,79.9028,-94.9401,-79.9722,32.8834,66.0541,10.1180,196.1289,56.4478
208,8.7019,-55.8112,79.8704,-94.9202,-79.9629,32.8626,64.4258,12.5979,196.1659,56.3753
209,10.8773,-55.8305,79.8379,-94.9002,-79.9536,32.8418,62.7044,15.0148,196.2029,56.3028
210,13.0528,-55.8497,79.8055,-94.8803,-79.9444,32.8210,60.8923,17.3654,196.2399,56.2303
211,15.2283,-55.8689,79.7731,-94.8603,-79.9351,32.8002,58.9921,19.6461,196.2770,56.1579
212,17.4037,-55.8881,79.7407,-94.8404,-79.9258,32.7794,57.0064,21.8536,196.3141,56.0854
213,19.5792,-55.9073,79.7083,-94.8204,-79.9166,32.7586,54.9381,23.9849,196.3512,56.0130
214,21.7547,-55.9265,79.6759,-94.8005,-79.9073,32.7378,52.7901,26.0367,196.3883,55.9405
215,23.9301,-55.9457,79.6435,-94.7805,-79.8980,32.7170,50.5655,28.0061,196.4255,55.8681
216,26.1056,-55.9649,79.6111,-94.7606,-79.8888,32.6962,48.2674,29.8903,196.4627,55.7957
217,28.2811,-55.9841,79.5786,-94.7406,-79.8795,32.6753,45.8991,31.6864,196.4999,55.7233
218,30.4565,-56.0033,79.5462,-94.7206,-79.8702,32.6545,43.4639,33.3919,196.5372,55.6509
219,32.6320,-56.0226,79.5138,-94.7007,-79.8609,32.6337,40.9654,35.0043,196.5745,55.5785
220,34.8075,-56.0418,79.4814,-94.6807,-79.8517,32.6129,38.4071,36.5212,196.6118,55.5061
221,35.0017,-48.7964,80.0120,-95.0221,-70.0232,32.9215,42.8764,38.0272,188.4313,62.3344
222,35.0034,-41.8583,80.0241,-95.0441,-60.0464,32.8973,47.0906,37.8556,180.0023,67.3223
223,35.0051,-34.9203,80.0361,-95.0662,-50.0696,32.8730,50.3679,35.9129,171.1457,71.5080
224,35.0068,-27.9822,80.0481,-95.0882,-40.0929,32.8487,52.5761,32.2348,162.3190,74.8396
225,35.0085,-21.0442,80.0601,-95.1103,-30.1161,32.8244,53.6728,26.9494,153.9883,77.3373
226,35.0102,-14.1062,80.0722,-95.1324,-20.1393,32.8002,53.7053,20.2730,146.5915,79.0963
227,35.0119,-7.1681,80.0842,-95.1544,-10.1625,32.7759,52.8030,12.4988,140.5050,80.2840
228,35.0136,-0.2301,80.0962,-95.1765,-0.1857,32.7516,51.1619,3.9800,136.0147,81.1275
229,35.0153,6.7079,80.1082,-95.1985,9.7911,32.7274,49.0240,-4.8910,133.2954,81.8937
230,35.0170,13.6460,80.1203,-95.2206,19.7679,32.7031,46.6525,-13.7068,132.3985,82.8624
231,35.0187,20.5840,80.1323,-95.2427,29.7447,32.6788,44.3055,-22.0700,133.2508,84.2964
232,35.0204,27.5221,80.1443,-95.2647,39.7214,32.6545,42.2110,-29.6178,135.6633,86.4127
233,35.0221,34.4601,80.1563,-95.2868,49.6982,32.6303,40.5446,-36.0430,139.3499,89.3602
234,35.0238,41.3981,80.1684,-95.3088,59.6750,32.6060,39.4128,-41.1119,143.9533,86.7918
235,35.0255,48.3362,80.1804,-95.3309,69.6518,32.5817,38.8430,-44.6760,149.0771,82.0532
236,35.0272,55.2742,80.1924,-95.3530,79.6286,32.5575,38.7812,-46.6773,154.3206,76.5030
237,34.9793,55.6616,71.7531,-86.7588,79.9687,32.9636,38.4408,-47.1002,154.9709,85.4031
238,34.9586,55.5889,63.5063,-78.5176,79.9374,32.9814,37.5270,-46.9708,154.6467,85.5361
239,34.9379,55.5161,55.2594,-70.2764,79.9060,32.9992,36.1250,-46.3311,153.5294,76.5423
240,34.9172,55.4433,47.0125,-62.0352,79.8747,33.0171,34.5143,-45.0200,151.5937,68.0543
241,34.8964,55.3705,38.7657,-53.7939,79.8434,33.0349,32.9797,-42.8894,148.9202,60.6256
242,34.8757,55.2978,30.5188,-45.5527,79.8121,33.0527,31.7852,-39.8226,145.6902,54.9632
243,34.9419,55.6876,38.3251,-53.3342,79.9794,32.9840,32.6943,-42.8826,148.9069,60.5502
244,34.8838,55.6408,46.6501,-61.6683,79.9589,33.0222,34.3182,-45.0543,151.5819,67.8639
245,34.8257,55.5941,54.9752,-70.0025,79.9383,33.0604,36.0079,-46.3995,153.5083,76.2528
246,34.7676,55.5473,63.3003,-78.3367,79.9178,33.0986,37.4768,-47.0667,154.6048,85.1579
247,34.7095,55.5005,71.6253,-86.6709,79.8972,33.1368,38.4434,-47.2167,154.8972,85.8648
248,34.6514,55.4537,79.9504,-95.0050,79.8767,33.1750,38.6579,-47.0051,154.5144,77.2026
249,32.1288,51.1169,79.9893,-94.9759,73.2983,36.4205,37.8286,-47.6804,151.1033,83.7828
250,29.2576,46.4993,79.9787,-94.9518,66.5965,39.8953,37.3362,-47.7641,147.5637,89.6672
251,26.3865,41.8818,79.9680,-94.9276,59.8948,43.3700,37.2744,-47.1830,144.1274,83.8672
252,23.5153,37.2642,79.9573,-94.9035,53.1931,46.8447,37.7494,-46.0233,140.9166,79.0137
253,20.6441,32.6467,79.9467,-94.8794,46.4913,50.3195,38.8357,-44.3965,138.0530,75.3088
254,17.7729,28.0291,79.9360,-94.8553,39.7896,53.7942,40.5721,-42.4320,135.6530,72.9329
255,14.9017,23.4116,79.9253,-94.8311,33.0878,57.2689,42.9595,-40.2701,133.8230,72.0083
256,12.0305,18.7941,79.9147,-94.8070,26.3861,60.7437,45.9606,-38.0531,132.6553,72.5661
257,9.1594,14.1765,79.9040,-94.7829,19.6844,64.2184,49.5024,-35.9184,132.2241,74.5339
258,6.2882,9.5590,79.8933,-94.7588,12.9826,67.6931,53.4793,-33.9903,132.5823,77.7508
259,3.4170,4.9414,79.8827,-94.7346,6.2809,71.1678,57.7593,-32.3741,133.7597,82.0013
260,0.5458,0.3239,79.8720,-94.7105,-0.4208,74.6426,62.1903,-31.1513,135.7605,87.0509
261,-0.0143,0.0184,75.0186,-90.0338,-0.0465,68.7697,67.4917,-31.9885,137.0280,84.6691
262,-0.0287,0.0369,70.0371,-85.0676,-0.0930,62.5394,72.4530,-31.9796,138.5808,82.5754
263,-0.0430,0.0553,65.0557,-80.1014,-0.1395,56.3091,77.2650,-31.9740,140.5594,80.3315
264,-0.0573,0.0738,60.0742,-75.1352,-0.1860,50.0789,81.8909,-31.9721,142.9501,77.9568
265,-0.0716,0.0922,55.0928,-70.1691,-0.2324,43.8486,86.2952,-31.9743,145.7355,75.4729
266,-0.0860,0.1107,50.1113,-65.2029,-0.2789,37.6183,90.4436,-31.9810,148.8956,72.9031
267,-0.1003,0.1291,45.1299,-60.2367,-0.3254,31.3880,94.3040,-31.9925,152.4070,70.2733
268,-0.1146,0.1476,40.1484,-55.2705,-0.3719,25.1577,97.8460,-32.0090,156.2435,67.6121
269,-0.1289,0.1660,35.1670,-50.3043,-0.4184,18.9274,101.0420,-32.0307,160.3761,64.9509
270,-0.1433,0.1845,30.1855,-45.3381,-0.4649,12.6972,103.8667,-32.0577,164.7735,62.3246
271,-0.1576,0.2029,25.2041,-40.3719,-0.5114,6.4669,106.2978,-32.0900,169.4020,59.7722
272,-0.1719,0.2214,20.2226,-35.4057,-0.5579,0.2366,108.3162,-32.1276,174.2260,57.3369
